X: 338
T: Lianbin mang
%%abc-version 2.0
%%abcx-abcm2ps-target-version 5.9.1 (29 Sep 2008)
%%abc-creator hum2abc beta
%%abcx-conversion-date 2013/10/02 07:52:30
%%abc-edited-by Helmut Schaffrath
%%humdrum-veritas 418671331
%%humdrum-veritas-data 3825114074
%%continueall 1
%%barnumbers 0
L: 1/16
M: 2/4
K: G
d2 d2 e2 B A [I:setbarnb 1]| 
G2 E GA4 | 
d2 d2 e2 B A | 
G2 E GA4 | 
d2 d2 e2 d B | 
A2 d2 A B A G | 
D2 G2 A G E G | 
D8 |]  



